X: 54
T: The Bog Down in the Valley-oh
B: begged borrowed and stolen
M:2/4
L:1/8
R: march
Q: 1/4=120
K:G
V:1 
|:"G"B2 B>A|"C"GE EG/E/|"G"DG G/F/G/A/|"D"BA A2|
"G"B2 B>A|"C"GE EG/E/|"D"Dd dB|"G"AG G>A:|
|:"G"BG "D"AG|"G"BG "D"AG|"G"Bd d>c|"C"BG"D"A2|
"G"BG "D"AG|"G"BG "D"AG|"G"Bd d>c|"C"BG "G"G2:|
% abcbook-tune_id 62828a3a77e7810e8520e382


% abcbook-boost 0
% abcbook-tablature 
% abcbook-transpose 
% abcbook-lastupdated 1652725431084
% abcbook-soundfonts 
% abcbook-repeats 3
% abc-sessionorg_id 
% abc-sessionorg_setting 0
% abc-sessionorg_setting_id undefined
% abc-boost 0
% Rhythm March
% Titles One title
% Transcriptions Only 1 transcription
% Mode major
% Key C
% Time_signature 4/4
% Has_accompaniment_chords Has chords

